X: 26260
T: Meghan's
R: reel
M: 4/4
K: Gmajor
EFFF AEDE|GEEE DEGA|BBBd BAGA|BAAG AAAD|
EFFF AEDE|GEEE DEGA|BBBd BAGA|BGGF GGGD:|

